X:1
T:Title
%%score { ( 1 4 ) | ( 2 3 ) }
L:1/8
M:9/8
K:Ab
V:1 treble nm="Grand Piano"
V:4 treble 
V:2 bass 
V:3 bass 
V:1
 z3 z3[Q:1/4=100] [CE][DF][B,G] | [CA]3 [Ec]3 [Ec][DB][CA] | B3 E3 GA[_G=A] | [GB]3- [GB]2 d c2 B | %4
 [Ec]6 cd=d | e3 c3 cB[EA] | [FB]3 [Fd]3 [FB]2 [FA] | G3- G2 F E2 B |[M:5/8] [CA]-[CA]- [CA]3 | %9
[M:3/8] A2 A |[M:9/8] [GB]2- [EGB] [GB]2- [EGB] B2 B | [Ac]2- [EAc] [Ac]2- [EAc] c2 d | e6 z3 | %13
 [EGB]6 e2 d | [Ac]6 z3 |[M:21/16] [FB]3 [Fd]3/2- [Fd]3 dc/-c/B |[M:9/8] e6 z3 |[M:3/4] [CEA]6 |] %18
V:2
 z3 z3 [A,,A,]2 [A,,E,] | [A,,E,]3 [A,,A,]3 [A,,A,]2 [A,,E,] | [E,G,D]3 [G,B,D]3 EF[E,E] | %3
 [E,E]3- [E,E]2 [E,B,E] [E,A,E]2 [E,G,E] | z3 z3 .[A,E]3 | [A,CE]3 [A,E]3 [A,,A,][B,,G,][C,A,] | %6
 [D,D]3 [D,B,]3 [=D,B,]2 [D,B,] | [E,B,E]3- [E,B,E]2 [E,A,D] [E,G,D]2 [E,D] | %8
[M:5/8] [A,,E,]-[A,,E,]- [A,,E,]3 |[M:3/8] C2 E |[M:9/8] E,2 E, E,2 E,[K:treble] G2 G | %11
 A,2 A, A,2 A, A2 B | A2- [A,A-] [A,A]2 [A,DA] [A,CA]2 [A,EA] | E,6 G2 G | %14
 A,2 A, A,2 [A,CA] [A,A]-[A,FA][A,EA] |[M:21/16][K:bass] [D,D]3 [D,B,]3/2- [D,B,]3 z3 | %16
[M:9/8] [E,C]2 [E,C] [E,C]2 [E,B,] E,2 E, |[M:3/4] A,,6 |] %18
V:3
 x9 | x9 | z3 z3 .[E,B,]3 | x9 | [A,,A,]6 z B,[A,B,E] | x9 | x9 | x9 |[M:5/8] x5 |[M:3/8] x3 | %10
[M:9/8] x6[K:treble] x3 | x9 | .[A,C]3 z3 z3 | x9 | z3 z3 .C3 |[M:21/16][K:bass] x21/2 | %16
[M:9/8] x9 |[M:3/4] x6 |] %18
V:4
 x9 | x9 | x9 | x9 | x9 | z3 z3 .E3 | x9 | x9 |[M:5/8] x5 |[M:3/8] x3 |[M:9/8] .E3 .E3 z3 | %11
 .E3 .E3 z3 | z2 C C2 f e2 c | x9 | E2 E E2 e edc |[M:21/16] x21/2 | %16
[M:9/8] A2 A A2 [Gd] [EAc]2 [DGB] |[M:3/4] x6 |] %18

